public/logo.svg

<svg width="99" height="29" viewBox="0 0 99 29" fill="none" xmlns="http://www.w3.org/2000/svg">
<path d="M8.5083 16.6646H3.97949V13.8081H8.5083C9.20817 13.8081 9.77783 13.6942 10.2173 13.4663C10.6567 13.2303 10.9782 12.9048 11.1816 12.4897C11.3851 12.0747 11.4868 11.6068 11.4868 11.0859C11.4868 10.557 11.3851 10.0646 11.1816 9.60889C10.9782 9.15316 10.6567 8.78695 10.2173 8.51025C9.77783 8.23356 9.20817 8.09521 8.5083 8.09521H5.24902V23H1.58691V5.22656H8.5083C9.8999 5.22656 11.0921 5.47884 12.085 5.9834C13.0859 6.47982 13.8509 7.16748 14.3799 8.04639C14.9089 8.92529 15.1733 9.93034 15.1733 11.0615C15.1733 12.209 14.9089 13.2018 14.3799 14.04C13.8509 14.8783 13.0859 15.5252 12.085 15.981C11.0921 16.4367 9.8999 16.6646 8.5083 16.6646ZM16.748 16.5303V16.2739C16.748 15.3055 16.8864 14.4144 17.1631 13.6006C17.4398 12.7786 17.8426 12.0666 18.3716 11.4644C18.9006 10.8621 19.5516 10.3942 20.3247 10.0605C21.0978 9.71875 21.9849 9.54785 22.9858 9.54785C23.9868 9.54785 24.8779 9.71875 25.6592 10.0605C26.4404 10.3942 27.0955 10.8621 27.6245 11.4644C28.1616 12.0666 28.5685 12.7786 28.8452 13.6006C29.1219 14.4144 29.2603 15.3055 29.2603 16.2739V16.5303C29.2603 17.4906 29.1219 18.3817 28.8452 19.2036C28.5685 20.0174 28.1616 20.7295 27.6245 21.3398C27.0955 21.9421 26.4445 22.41 25.6714 22.7437C24.8983 23.0773 24.0112 23.2441 23.0103 23.2441C22.0093 23.2441 21.1182 23.0773 20.3369 22.7437C19.5638 22.41 18.9087 21.9421 18.3716 21.3398C17.8426 20.7295 17.4398 20.0174 17.1631 19.2036C16.8864 18.3817 16.748 17.4906 16.748 16.5303ZM20.2637 16.2739V16.5303C20.2637 17.0837 20.3125 17.6004 20.4102 18.0806C20.5078 18.5607 20.6624 18.9839 20.874 19.3501C21.0938 19.7082 21.3786 19.9889 21.7285 20.1924C22.0785 20.3958 22.5057 20.4976 23.0103 20.4976C23.4985 20.4976 23.9176 20.3958 24.2676 20.1924C24.6175 19.9889 24.8983 19.7082 25.1099 19.3501C25.3215 18.9839 25.4761 18.5607 25.5737 18.0806C25.6795 17.6004 25.7324 17.0837 25.7324 16.5303V16.2739C25.7324 15.7368 25.6795 15.2323 25.5737 14.7603C25.4761 14.2801 25.3174 13.8569 25.0977 13.4907C24.8861 13.1164 24.6053 12.8234 24.2554 12.6118C23.9054 12.4002 23.4823 12.2944 22.9858 12.2944C22.4894 12.2944 22.0662 12.4002 21.7163 12.6118C21.3745 12.8234 21.0938 13.1164 20.874 13.4907C20.6624 13.8569 20.5078 14.2801 20.4102 14.7603C20.3125 15.2323 20.2637 15.7368 20.2637 16.2739ZM34.9365 12.6729V23H31.4209V9.79199H34.729L34.9365 12.6729ZM38.916 9.70654L38.855 12.9658C38.6841 12.9414 38.4766 12.9211 38.2324 12.9048C37.9964 12.8804 37.7808 12.8682 37.5854 12.8682C37.089 12.8682 36.6577 12.9333 36.2915 13.0635C35.9334 13.1855 35.6323 13.3687 35.3882 13.6128C35.1522 13.8569 34.9731 14.154 34.8511 14.5039C34.7371 14.8538 34.672 15.2526 34.6558 15.7002L33.9478 15.4805C33.9478 14.626 34.0332 13.8407 34.2041 13.1245C34.375 12.4002 34.6232 11.7695 34.9487 11.2324C35.2824 10.6953 35.6893 10.2803 36.1694 9.9873C36.6496 9.69434 37.1989 9.54785 37.8174 9.54785C38.0127 9.54785 38.2121 9.56413 38.4155 9.59668C38.619 9.62109 38.7858 9.65771 38.916 9.70654ZM47.6562 9.79199V12.2822H39.9658V9.79199H47.6562ZM41.8701 6.53271H45.3857V19.0205C45.3857 19.403 45.4346 19.696 45.5322 19.8994C45.638 20.1029 45.7926 20.2453 45.9961 20.3267C46.1995 20.3999 46.4559 20.4365 46.7651 20.4365C46.9849 20.4365 47.1802 20.4284 47.3511 20.4121C47.5301 20.3877 47.6807 20.3633 47.8027 20.3389L47.8149 22.9268C47.5138 23.0244 47.1883 23.1017 46.8384 23.1587C46.4884 23.2157 46.1019 23.2441 45.6787 23.2441C44.9056 23.2441 44.2301 23.118 43.6523 22.8657C43.0827 22.6053 42.6432 22.1903 42.334 21.6206C42.0247 21.0509 41.8701 20.3022 41.8701 19.3745V6.53271Z" fill="white"/>
<path d="M54.1382 23H50.5981V8.62012C50.5981 7.61914 50.7935 6.77686 51.1841 6.09326C51.5828 5.40153 52.1403 4.8807 52.8564 4.53076C53.5807 4.17269 54.4393 3.99365 55.4321 3.99365C55.7576 3.99365 56.071 4.01807 56.3721 4.06689C56.6732 4.10758 56.9661 4.16048 57.251 4.22559L57.2144 6.87451C57.0597 6.83382 56.897 6.80534 56.7261 6.78906C56.5552 6.77279 56.3558 6.76465 56.1279 6.76465C55.7048 6.76465 55.3426 6.83789 55.0415 6.98438C54.7485 7.12272 54.5247 7.33024 54.3701 7.60693C54.2155 7.88363 54.1382 8.22135 54.1382 8.62012V23ZM56.7749 9.79199V12.2822H48.6328V9.79199H56.7749ZM58.0566 16.5303V16.2739C58.0566 15.3055 58.195 14.4144 58.4717 13.6006C58.7484 12.7786 59.1512 12.0666 59.6802 11.4644C60.2091 10.8621 60.8602 10.3942 61.6333 10.0605C62.4064 9.71875 63.2935 9.54785 64.2944 9.54785C65.2954 9.54785 66.1865 9.71875 66.9678 10.0605C67.749 10.3942 68.4041 10.8621 68.9331 11.4644C69.4702 12.0666 69.8771 12.7786 70.1538 13.6006C70.4305 14.4144 70.5688 15.3055 70.5688 16.2739V16.5303C70.5688 17.4906 70.4305 18.3817 70.1538 19.2036C69.8771 20.0174 69.4702 20.7295 68.9331 21.3398C68.4041 21.9421 67.7531 22.41 66.98 22.7437C66.2069 23.0773 65.3198 23.2441 64.3188 23.2441C63.3179 23.2441 62.4268 23.0773 61.6455 22.7437C60.8724 22.41 60.2173 21.9421 59.6802 21.3398C59.1512 20.7295 58.7484 20.0174 58.4717 19.2036C58.195 18.3817 58.0566 17.4906 58.0566 16.5303ZM61.5723 16.2739V16.5303C61.5723 17.0837 61.6211 17.6004 61.7188 18.0806C61.8164 18.5607 61.971 18.9839 62.1826 19.3501C62.4023 19.7082 62.6872 19.9889 63.0371 20.1924C63.387 20.3958 63.8143 20.4976 64.3188 20.4976C64.8071 20.4976 65.2262 20.3958 65.5762 20.1924C65.9261 19.9889 66.2069 19.7082 66.4185 19.3501C66.63 18.9839 66.7847 18.5607 66.8823 18.0806C66.9881 17.6004 67.041 17.0837 67.041 16.5303V16.2739C67.041 15.7368 66.9881 15.2323 66.8823 14.7603C66.7847 14.2801 66.626 13.8569 66.4062 13.4907C66.1947 13.1164 65.9139 12.8234 65.564 12.6118C65.214 12.4002 64.7909 12.2944 64.2944 12.2944C63.798 12.2944 63.3748 12.4002 63.0249 12.6118C62.6831 12.8234 62.4023 13.1164 62.1826 13.4907C61.971 13.8569 61.8164 14.2801 61.7188 14.7603C61.6211 15.2323 61.5723 15.7368 61.5723 16.2739ZM76.4404 4.25V23H72.9126V4.25H76.4404ZM83.0566 9.79199V23H79.5288V9.79199H83.0566ZM79.3091 6.34961C79.3091 5.83691 79.4881 5.41374 79.8462 5.08008C80.2043 4.74642 80.6844 4.57959 81.2866 4.57959C81.8807 4.57959 82.3568 4.74642 82.7148 5.08008C83.0811 5.41374 83.2642 5.83691 83.2642 6.34961C83.2642 6.8623 83.0811 7.28548 82.7148 7.61914C82.3568 7.9528 81.8807 8.11963 81.2866 8.11963C80.6844 8.11963 80.2043 7.9528 79.8462 7.61914C79.4881 7.28548 79.3091 6.8623 79.3091 6.34961ZM85.4004 16.5303V16.2739C85.4004 15.3055 85.5387 14.4144 85.8154 13.6006C86.0921 12.7786 86.495 12.0666 87.0239 11.4644C87.5529 10.8621 88.2039 10.3942 88.9771 10.0605C89.7502 9.71875 90.6372 9.54785 91.6382 9.54785C92.6392 9.54785 93.5303 9.71875 94.3115 10.0605C95.0928 10.3942 95.7479 10.8621 96.2769 11.4644C96.814 12.0666 97.2209 12.7786 97.4976 13.6006C97.7743 14.4144 97.9126 15.3055 97.9126 16.2739V16.5303C97.9126 17.4906 97.7743 18.3817 97.4976 19.2036C97.2209 20.0174 96.814 20.7295 96.2769 21.3398C95.7479 21.9421 95.0968 22.41 94.3237 22.7437C93.5506 23.0773 92.6636 23.2441 91.6626 23.2441C90.6616 23.2441 89.7705 23.0773 88.9893 22.7437C88.2161 22.41 87.561 21.9421 87.0239 21.3398C86.495 20.7295 86.0921 20.0174 85.8154 19.2036C85.5387 18.3817 85.4004 17.4906 85.4004 16.5303ZM88.916 16.2739V16.5303C88.916 17.0837 88.9648 17.6004 89.0625 18.0806C89.1602 18.5607 89.3148 18.9839 89.5264 19.3501C89.7461 19.7082 90.0309 19.9889 90.3809 20.1924C90.7308 20.3958 91.158 20.4976 91.6626 20.4976C92.1509 20.4976 92.57 20.3958 92.9199 20.1924C93.2699 19.9889 93.5506 19.7082 93.7622 19.3501C93.9738 18.9839 94.1284 18.5607 94.2261 18.0806C94.3319 17.6004 94.3848 17.0837 94.3848 16.5303V16.2739C94.3848 15.7368 94.3319 15.2323 94.2261 14.7603C94.1284 14.2801 93.9697 13.8569 93.75 13.4907C93.5384 13.1164 93.2576 12.8234 92.9077 12.6118C92.5578 12.4002 92.1346 12.2944 91.6382 12.2944C91.1418 12.2944 90.7186 12.4002 90.3687 12.6118C90.0269 12.8234 89.7461 13.1164 89.5264 13.4907C89.3148 13.8569 89.1602 14.2801 89.0625 14.7603C88.9648 15.2323 88.916 15.7368 88.916 16.2739Z" fill="black"/>
<path d="M83.2979 6.022C83.2979 7.12657 82.4024 8.022 81.2979 8.022C80.1933 8.022 79.2979 7.12657 79.2979 6.022C79.2979 4.91743 80.1933 4.022 81.2979 4.022C82.4024 4.022 83.2979 4.91743 83.2979 6.022Z" fill="white"/>
</svg>

<svg width="99" height="29" fill="none" xmlns="http://www.w3.org/2000/svg"><path d="M8.5 16.66H3.99v-2.85H8.5c.7 0 1.27-.12 1.7-.34.45-.24.77-.57.97-.98a3.58 3.58 0 0 0 0-2.88c-.2-.46-.52-.82-.96-1.1-.44-.28-1.01-.41-1.71-.41H5.25V23H1.59V5.23H8.5c1.39 0 2.58.25 3.58.75a5.4 5.4 0 0 1 3.08 5.08c0 1.15-.26 2.14-.79 2.98a5.15 5.15 0 0 1-2.3 1.94c-.99.46-2.18.68-3.57.68Zm8.25-.13v-.26c0-.96.14-1.86.41-2.67.28-.82.68-1.53 1.21-2.14a5.42 5.42 0 0 1 1.95-1.4A6.52 6.52 0 0 1 23 9.55c1 0 1.89.17 2.67.51.78.33 1.44.8 1.96 1.4.54.6.95 1.32 1.23 2.14.27.81.41 1.7.41 2.67v.26c0 .96-.14 1.85-.41 2.67a6.23 6.23 0 0 1-1.23 2.14 5.42 5.42 0 0 1-1.95 1.4c-.77.34-1.66.5-2.66.5-1 0-1.9-.16-2.67-.5a5.53 5.53 0 0 1-3.18-3.54 8.33 8.33 0 0 1-.41-2.67Zm3.51-.26v.26c0 .55.05 1.07.15 1.55.1.48.25.9.46 1.27.22.36.5.64.86.84.35.2.78.3 1.28.3.49 0 .9-.1 1.26-.3.35-.2.63-.48.84-.84.21-.37.37-.79.46-1.27.11-.48.16-1 .16-1.55v-.26a6.9 6.9 0 0 0-.16-1.51 4 4 0 0 0-.47-1.27c-.21-.37-.5-.67-.84-.88a2.41 2.41 0 0 0-1.27-.32c-.5 0-.92.11-1.27.32-.35.21-.63.5-.85.88-.2.37-.36.79-.46 1.27-.1.47-.15.98-.15 1.51Zm14.68-3.6V23h-3.52V9.8h3.3l.22 2.87Zm3.98-2.96-.07 3.26a8.52 8.52 0 0 0-1.26-.1c-.5 0-.93.06-1.3.2-.36.12-.66.3-.9.54a2.4 2.4 0 0 0-.54.9c-.11.34-.18.74-.2 1.19l-.7-.22c0-.85.08-1.64.25-2.36.17-.72.42-1.35.75-1.89.33-.53.74-.95 1.22-1.24a3.1 3.1 0 0 1 1.65-.44 3.78 3.78 0 0 1 1.1.16Zm8.74.08v2.5h-7.7v-2.5h7.7Zm-5.79-3.26h3.52v12.49c0 .38.04.68.14.88.1.2.26.35.47.43.2.07.46.1.77.1a6.24 6.24 0 0 0 1.03-.1l.01 2.6a6.62 6.62 0 0 1-4.16-.06 2.8 2.8 0 0 1-1.32-1.25 4.7 4.7 0 0 1-.46-2.25V6.53Z" fill="#fff"/><path d="M54.14 23H50.6V8.62c0-1 .2-1.84.58-2.53.4-.69.96-1.2 1.68-1.56A5.75 5.75 0 0 1 55.43 4a9.88 9.88 0 0 1 1.82.23l-.04 2.65a6.4 6.4 0 0 0-1.09-.11c-.42 0-.78.08-1.08.22-.3.14-.52.35-.67.63-.15.27-.23.61-.23 1.01V23Zm2.63-13.2v2.48h-8.14V9.8h8.14Zm1.29 6.73v-.26c0-.96.13-1.86.41-2.67.28-.82.68-1.53 1.21-2.14a5.41 5.41 0 0 1 1.95-1.4 6.52 6.52 0 0 1 2.66-.51c1 0 1.9.17 2.68.51.78.33 1.43.8 1.96 1.4.54.6.95 1.32 1.22 2.14.28.81.42 1.7.42 2.67v.26c0 .96-.14 1.85-.42 2.67a6.23 6.23 0 0 1-1.22 2.14 5.42 5.42 0 0 1-1.95 1.4c-.77.34-1.66.5-2.66.5-1 0-1.9-.16-2.67-.5a5.53 5.53 0 0 1-3.18-3.54 8.33 8.33 0 0 1-.41-2.67Zm3.51-.26v.26c0 .55.05 1.07.15 1.55.1.48.25.9.46 1.27.22.36.5.64.86.84.35.2.77.3 1.28.3.49 0 .9-.1 1.26-.3.35-.2.63-.48.84-.84.21-.37.36-.79.46-1.27.1-.48.16-1 .16-1.55v-.26a6.9 6.9 0 0 0-.16-1.51 4 4 0 0 0-.47-1.27c-.22-.37-.5-.67-.85-.88a2.41 2.41 0 0 0-1.27-.32c-.5 0-.92.11-1.27.32-.34.21-.62.5-.84.88-.2.37-.36.79-.46 1.27-.1.47-.15.98-.15 1.51ZM76.44 4.25V23h-3.53V4.25h3.53Zm6.62 5.54V23h-3.53V9.8h3.53ZM79.3 6.35c0-.51.18-.94.54-1.27.35-.33.83-.5 1.44-.5.6 0 1.07.17 1.42.5.37.33.55.76.55 1.27s-.18.94-.55 1.27c-.35.33-.83.5-1.42.5-.6 0-1.09-.17-1.44-.5a1.66 1.66 0 0 1-.54-1.27Zm6.09 10.18v-.26c0-.96.14-1.86.42-2.67.27-.82.68-1.53 1.2-2.14a5.41 5.41 0 0 1 1.96-1.4 6.52 6.52 0 0 1 2.66-.51c1 0 1.89.17 2.67.51.78.33 1.44.8 1.97 1.4.53.6.94 1.32 1.22 2.14.27.81.41 1.7.41 2.67v.26c0 .96-.14 1.85-.41 2.67a6.23 6.23 0 0 1-1.22 2.14 5.42 5.42 0 0 1-1.96 1.4c-.77.34-1.66.5-2.66.5-1 0-1.89-.16-2.67-.5a5.53 5.53 0 0 1-3.17-3.54 8.33 8.33 0 0 1-.42-2.67Zm3.52-.26v.26c0 .55.04 1.07.14 1.55s.25.9.47 1.27c.22.36.5.64.85.84.35.2.78.3 1.28.3s.91-.1 1.26-.3c.35-.2.63-.48.84-.84.21-.37.37-.79.47-1.27.1-.48.15-1 .15-1.55v-.26a6.9 6.9 0 0 0-.15-1.51 4 4 0 0 0-.48-1.27c-.21-.37-.5-.67-.84-.88a2.4 2.4 0 0 0-1.27-.32c-.5 0-.92.11-1.27.32-.34.21-.62.5-.84.88-.22.37-.37.79-.47 1.27-.1.47-.14.98-.14 1.51Z" fill="#000"/><path d="M83.3 6.02a2 2 0 1 1-4 0 2 2 0 0 1 4 0Z" fill="#fff"/></svg>
